X: 27087
T: Miss Kirsty Batchelor
R: barndance
M: 4/4
K: Amajor
cB|:A3BA2C2|E4C3E|FEFGA2GF|E2C2C2E2|
[1A3BA2C2|E4C3E|FEFGA2C2|C2B,2BdcB:|
[2F3Ad2F2|E3CC2E2|D2Bc dcBA|G2B2B2cd||
|:c2A2e2A2|f2A2e3d|c2e2A2c2|E2A2CEAc|
d2B2f2B2|g2B2f3e|d2f2B2d2|G2B2EGBd|
c2BAe2A2|f2A2e3d|c2e2A2c2|E2A2CEAc|
D3FB2D2|C3EA2C2|D2EFE2G2|A4A2||

